!!!OTL: Chang shou Shange,shi mei xin
!!!ARE: Asia, China,ˇSichuan, Jiulong
!! II, 249
!!!SCT: C1504
!!!YEM: Copyright 1995, estate of Helmut Schaffrath.
**kern
*ICvox
*Ivox
*M2/4
*k[f#]
*G:
{8.e
16e
8a
16g
16a
=1
8b
4.a
=2
4ee
8.b
16a
=3
4.e
8r}
=4
{4e
8.b
16dd
=5
4a
8g
8r
=6
4b
8.g
16b
=7
4a
8g
8r
=8
4a
8g
8r}
=9
{8dd
8b
8dd
8b
=10
4.a
8e
=11
8a
8dd
4b
=12
8a
8g
8e
16B
16d
=13
4e
4g
=14
4e
4r}
=15
{2a
=16
8a
8dd
4b
=17
8a
8g
8e
16B
16d
=18
4e
4g
=19
4.e
8r}
==
!!!AGN: Shange. NannÅ qing
!!!AMT: simple duple
!!!AIN: vox
!!!EED: Helmut Schaffrath
!!!EEV: 1.0
*-
